!!!ONB: MCCC : IWM0412_03 : Extracted Monophonic Melody
!!!COM: Mozart, Wolfgang Amadeus
!!!OPR: Piano Sonata No.12
!!!OMV: 3
!!!SCT: K.332 ; K⁶.300k ; Op.6 No.3
!!!ODT: 1783///
**kern
*thru
*staff1
*>A
*clefG2
*k[b-]
*F:
*M6/8
*MM144
16ccc
16bb
16ccc
16fff
16ccc
16bb-
16aa
16gg#
16aa
16ccc
16aa
=2
16gg
16ff
16ee
16ff
16aa
16ff
16dd
16cc
16b
16cc
16ff
16cc
=3
16b-
16a
16g#
16a
16cc
16a
16f
16ff
16e
16ff
16f
16ff
=4
16g
16ff
16f
16ff
16g
16ff
16a
16ff
16g
16ff
16a
16ff
=5
16b-
16ff
16b-
16ff
16a
16ff
16b-
16ff
16b-
16ff
16a
16ff
=6
16a-
16ff
16a-
16ff
16a-
16ff
8ee
8r
8r
=7
16r
16ccc
16bb
16ccc
16fff
16ccc
16bb-
16aa
16gg#
16aa
16ccc
16aa
=8
16gg
16ff
16ee
16ff
16aa
16ff
16dd
16cc
16b
16cc
16ff
16cc
=9
16b-
16a
16g#
16a
16cc
16a
16f
16ff
16e
16ff
16f
16ff
=10
16g
16ff
16f
16ff
16g
16ff
16a
16ff
16g
16ff
16a
16ff
=11
16b-
16ff
16b-
16ff
16a
16ff
16b-
16ff
16b-
16ff
16a
16ff
=12
16a-
16ff
8r
8r
16g
16ee
8r
8r
=13
16f#
16ee-
8r
8r
8r
16d
16g
16b-
16dd
=14
16cc
16b-
16a
16g
16f
16e
8f
8c
8c
=15
[4.b-
8b-]
8a
8g
=16
4.f
4.f
=17
[4.b-
8b-]
8a
8g
=18
4.b
8cc
8r
8r
=19
[4.b-
8b-]
8a
8g
=20
4f
[8a
4a]
[8cc
=21
4cc]
[8b-
4b-]
8g
=22
8f
8r
8A
8B-
8g
8B
=23
8c
8a
8c#
8d
8b-
8e
=24
[4.bb-
8bb-]
16aa
16gg
16ff
16ee
=25
8ff
8gg
8aa
4cc
8b-
=26
4.b-
8a
8r
8r
=27
8r
8r
8A
8B-
8g
8B
=28
8c
8a
8c#
8d
8b-
8e
=29
[4.bb-
8bb-]
16aa
16gg
16ff
16ee
=30
32ff
32gg
16aa
8r
8r
32dd
32ee
16ff
8r
8r
=31
4.f
4g
8f
=32
4.f
8cc
8b-
8g
=33
4.f
8cc
8b-
8g
=34
8f
8c
8a
8f
8c
8a
=35
4.g
8f
8r
8r
=36
4.aa
4.gg
=37
4.ff
4.ee
=38
4.dd
4.cc#
=39
16dd
16a
16f
16a
16dd
16a
16ee
16a
16g
16a
16ee
16a
=40
16ff
16dd
16a
16dd
16ff
16dd
16ff#
16dd
16a
16dd
16ff#
16dd
=41
4gg
16aa
16gg
4ff
16gg
16ff
=42
4ee
16ff
16ee
4dd
16ee
16dd
=43
4cc
16dd
16cc
4b
16cc
16b
=44
16dd
16cc
16b
16cc
16b
16cc
16ee
16dd
16cc#
16dd
16cc#
16dd
=45
16ee
16dd
16cc
16dd
16ee
16ff
16gg
16ff
16ee
16ff
16gg
16gg#
=46
16aa
16bb-
16aa
16gg
16ff
16ee
16dd
16ccc#
16ddd
16ccc
16bb
16aa
=47
16gg
16aa
16gg
16ff
16ee
16dd
16cc
16bb
16ccc
16bb
16aa
16gg
=48
16ff
16ccc#
16ddd
16bb
16gg
16ff
16ee
16bb
16ccc
16gg
16ff
16ee
=49
16dd
16ee
16dd
16cc
16b
16a
16g
16r
8r
8r
=50
[4.ee-
8ee-]
8dd
8cc
=51
4ff#
8gg
4dd
8r
=52
[4.aa-
8aa-]
8gg
8ff
=53
4ee-
8ff
4gg
8r
=54
4.ccc
4bb-
8ccc
=55
4bb-
8aa-
4.gg
=56
4ff
8ee-
4dd
8cc
=57
4.ee-
8dd
8r
8r
=58
[4.ee-
8ee-]
8dd
8cc
=59
4ff#
8gg
4dd
8r
=60
[4.aa-
8aa-]
8gg
8ff
=61
4ee
16ff
16gg
4ff
8r
=62
[4.eee-
8eee-]
8ddd
8ccc
=63
4.bb
4ccc
8aa-
=64
4.cc
4.dd
=65
16cc
16gg
16ff#
16gg
16aa
16gg
16ff
16gg
16ff
16gg
16ff
16gg
=66
16ee
16gg
16ff#
16gg
16ccc
16gg
16ff
16gg
16ff
16gg
16ff
16gg
=67
16ee
16gg
16ff#
16gg
16ccc
16gg
16ff
16gg
16ff
16gg
16ff
16gg
=68
16ee
16gg
16ccc
16ee
16dd
16bb
16cc
16aa
16b
16gg
16a
16ff
=69
16g
16ee
16f
16dd
16e
16cc
16d
16b
16c
16a
16B
16g
=70
4.f#
4.f
=71
4.ff
4.b
=72
8r
8gg
8gg
8r
8aa
8aa
=73
4.cc
4.dd
=74
16cc
16gg
16ff#
16gg
16aa
16gg
16ff
16gg
16ff
16gg
16ff
16gg
=75
16ee
16gg
16ff#
16gg
16ccc
16gg
16ff
16gg
16ff
16gg
16ff
16gg
=76
16ee
16gg
16ff#
16gg
16ccc
16gg
16ff
16gg
16ff
16gg
16ff
16gg
=77
16ee
16gg
16ccc
16ee
16dd
16bb
16cc
16aa
16b
16gg
16a
16ff
=78
16g
16ee
16f
16dd
16e
16cc
16d
16b
16c
16a
16B
16g
=79
4.f#
4.f
=80
4.ff
4.b
=81
8r
8gg
8gg
8r
8aa
8aa
=82
4.cc
4.b
=83
16ff#
16gg
16ff#
16gg
16ff#
16gg
16gg#
16aa
16gg#
16aa
16bb
16ccc
=84
4.cc
[4dd
16dd]
16cc
=85
16cc
16ee
16gg
16ccc
16bb
16aa
16gg
16aa
16gg
16ff
16ee
16dd
=86
16cc
16ee
16dd
16cc
16b
16a
16g
16a
16g
16f
16e
16d
=87
16c
16e
16d
16c
16B
16A
4.r
=88
4.r
8c
8e
8g
=89
4cc
8r
4gg
8r
=90
4ccc
8r
4r
8r
=91
*>A
16r
16ccc
16bb
16ccc
16fff
16ccc
16bb-
16aa
16gg#
16aa
16ccc
16aa
=92
16gg
16ff
16ee
16ff
16aa
16ff
16dd
16cc
16b
16cc
16ff
16cc
=93
16b-
16a
16g#
16a
16cc
16a
16f
16ff
16e
16ff
16f
16ff
=94
16g
16ff
16f
16ff
16g
16ff
16a
16ff
16g
16ff
16a
16ff
=95
16b-
16ff
16b-
16ff
16a
16ff
16b-
16ff
16b-
16ff
16a
16ff
=96
16a-
16ff
16a-
16ff
16a-
16ff
8ee
8r
8r
=97
16r
16ccc
16bb
16ccc
16fff
16ccc
16bb-
16aa
16gg#
16aa
16ccc
16aa
=98
16gg
16ff
16ee
16ff
16aa
16ff
16dd
16cc
16b
16cc
16ff
16cc
=99
16b-
16a
16g#
16a
16cc
16a
16f
16ff
16e
16ff
16f
16ff
=100
16g
16ff
16f
16ff
16g
16ff
16a
16ff
16g
16ff
16a
16ff
=101
16b-
16ff
16b-
16ff
16a
16ff
16b-
16ff
16b-
16ff
16a
16ff
=102
16a-
16ff
8r
8r
16g
16ee
8r
8r
=103
16f#
16ee-
8r
8r
8r
16d
16g
16b-
16dd
=104
16cc
16b-
16a
16g
16f
16e
8f
8c
8c
=105
[4.b-
8b-]
8a
8g
=106
4.f
4.f
=107
[4.b-
8b-]
8a
8g
=108
4.b
8cc
8r
8r
=109
[4.b-
8b-]
8a
8g
=110
4f
[8a
4a]
[8cc
=111
4cc]
[8b-
4b-]
8g
=112
8f
8r
8A
8B-
8g
8B
=113
8c
8a
8c#
8d
8b-
8e
=114
[4.bb-
8bb-]
16aa
16gg
16ff
16ee
=115
8ff
8gg
8aa
4cc
8b-
=116
4.b-
8a
8r
8r
=117
8r
8r
8A
8B-
8g
8B
=118
8c
8a
8c#
8d
8b-
8e
=119
[4.bb-
8bb-]
16aa
16gg
16ff
16ee
=120
32ff
32gg
16aa
8r
8r
32dd
32ee
16ff
8r
8r
=121
4.f
4g
8f
=122
4.f
8cc
8b-
8g
=123
4.f
8cc
8b-
8g
=124
8f
8c
8a
8f
8c
8a
=125
4.g
8f
8r
8r
=126
4.aa
4.gg
=127
4.ff
4.ee
=128
4.dd
4.cc#
=129
16dd
16a
16f
16a
16dd
16a
16ee
16a
16g
16a
16ee
16a
=130
16ff
16dd
16a
16dd
16ff
16dd
16ff#
16dd
16a
16dd
16ff#
16dd
=131
4gg
16aa
16gg
4ff
16gg
16ff
=132
4ee
16ff
16ee
4dd
16ee
16dd
=133
4cc
16dd
16cc
4b
16cc
16b
=134
16dd
16cc
16b
16cc
16b
16cc
16ee
16dd
16cc#
16dd
16cc#
16dd
=135
16ee
16dd
16cc
16dd
16ee
16ff
16gg
16ff
16ee
16ff
16gg
16gg#
=136
16aa
16bb-
16aa
16gg
16ff
16ee
16dd
16ccc#
16ddd
16ccc
16bb
16aa
=137
16gg
16aa
16gg
16ff
16ee
16dd
16cc
16bb
16ccc
16bb
16aa
16gg
=138
16ff
16ccc#
16ddd
16bb
16gg
16ff
16ee
16bb
16ccc
16gg
16ff
16ee
=139
16dd
16ee
16dd
16cc
16b
16a
16g
16r
8r
8r
=140
[4.ee-
8ee-]
8dd
8cc
=141
4ff#
8gg
4dd
8r
=142
[4.aa-
8aa-]
8gg
8ff
=143
4ee-
8ff
4gg
8r
=144
4.ccc
4bb-
8ccc
=145
4bb-
8aa-
4.gg
=146
4ff
8ee-
4dd
8cc
=147
4.ee-
8dd
8r
8r
=148
[4.ee-
8ee-]
8dd
8cc
=149
4ff#
8gg
4dd
8r
=150
[4.aa-
8aa-]
8gg
8ff
=151
4ee
16ff
16gg
4ff
8r
=152
[4.eee-
8eee-]
8ddd
8ccc
=153
4.bb
4ccc
8aa-
=154
4.cc
4.dd
=155
16cc
16gg
16ff#
16gg
16aa
16gg
16ff
16gg
16ff
16gg
16ff
16gg
=156
16ee
16gg
16ff#
16gg
16ccc
16gg
16ff
16gg
16ff
16gg
16ff
16gg
=157
16ee
16gg
16ff#
16gg
16ccc
16gg
16ff
16gg
16ff
16gg
16ff
16gg
=158
16ee
16gg
16ccc
16ee
16dd
16bb
16cc
16aa
16b
16gg
16a
16ff
=159
16g
16ee
16f
16dd
16e
16cc
16d
16b
16c
16a
16B
16g
=160
4.f#
4.f
=161
4.ff
4.b
=162
8r
8gg
8gg
8r
8aa
8aa
=163
4.cc
4.dd
=164
16cc
16gg
16ff#
16gg
16aa
16gg
16ff
16gg
16ff
16gg
16ff
16gg
=165
16ee
16gg
16ff#
16gg
16ccc
16gg
16ff
16gg
16ff
16gg
16ff
16gg
=166
16ee
16gg
16ff#
16gg
16ccc
16gg
16ff
16gg
16ff
16gg
16ff
16gg
=167
16ee
16gg
16ccc
16ee
16dd
16bb
16cc
16aa
16b
16gg
16a
16ff
=168
16g
16ee
16f
16dd
16e
16cc
16d
16b
16c
16a
16B
16g
=169
4.f#
4.f
=170
4.ff
4.b
=171
8r
8gg
8gg
8r
8aa
8aa
=172
4.cc
4.b
=173
16ff#
16gg
16ff#
16gg
16ff#
16gg
16gg#
16aa
16gg#
16aa
16bb
16ccc
=174
4.cc
[4dd
16dd]
16cc
=175
16cc
16ee
16gg
16ccc
16bb
16aa
16gg
16aa
16gg
16ff
16ee
16dd
=176
16cc
16ee
16dd
16cc
16b
16a
16g
16a
16g
16f
16e
16d
=177
16c
16e
16d
16c
16B
16A
4.r
=178
4.r
8c
8e
8g
=179
4cc
8r
4gg
8r
=180
4ccc
8r
4r
8r
=181
*>B
16r
16gg
16ff#
16gg
16ccc
16gg
16ff
16ee-
16dd
16ee-
16gg
16ee-
=182
16dd
16cc
16b
16cc
16ee-
16cc
16a
16g
16f#
16g
16cc
16g
=183
16f
16e-
16d
16e-
16g
16e-
16c
16cc
16B
16cc
16c
16cc
=184
16d
16cc
16c
16cc
16d
16cc
16e
16cc
16d
16cc
16e
16cc
=185
16f
16cc
16f
16cc
16e-
16cc
16f
16cc
16f
16cc
16e-
16cc
=186
16d
16cc
16e-
16cc
16d
16cc
16e-
16cc
16f
16cc
16e-
16cc
=187
16d
16cc
16e-
16cc
16d
16cc
16e-
16cc
16f
16cc
16e-
16cc
=188
4d
16r
16f#
16cc
16d
16f#
16a
16cc
16ff#
=189
16ccc
16bb-
16aa
16gg
16ff#
16gg
16ff#
16gg
16ff#
16ee-
16dd
16cc
=190
16b
16ff
16cc
16ff
16b
16ff
16cc
16ff
16dd-
16ff
16cc
16ff
=191
16b
16ff
16cc
16ff
16b
16ff
16cc
16ff
16dd-
16ff
16cc
16ff
=192
8b
8r
16r
16b
16ff
16g
16b
16dd
16ff
16bb
=193
16fff
16eee-
16ddd
16ccc
16bb
16aa-
16gg
16ff#
16gg
16aa-
16gg
16ff
=194
16ee
16g
16ff
16g
16ee
16g
16ff
16g
16ee
16g
16ff
16g
=195
16ee
16g
16ff
16g
16ee
16g
16ff
16g
16ee
16g
16ff
16g
=196
8ee
8r
16r
16e
16b-
16c
16e
16g
16b-
16ee
=197
16bb-
16aa
16gg
16ff
16ee
16dd
16cc
16dd
16cc
16b-
16a
16g
=198
16f
16ee-
16g-
16ee-
16f
16ee-
16g-
16ee-
16a-
16ee-
16g-
16ee-
=199
16f
16ee-
16g-
16ee-
16f
16ee-
16g-
16ee-
16a-
16ee-
16g-
16ee-
=200
8f
8r
16r
16a
16ee-
16f
16a
16cc
16ee-
16aa
=201
16eee-
16ddd
16ccc
16bb-
16aa
16gg
16ff
16gg
16ff
16ee-
16dd
16cc
=202
8dd
8r
8dd
8cc
8r
8cc
=203
[4.ee-
4ee-]
8dd
=204
8ee-
8r
8ee-
8dd
8r
8dd
=205
[4.gg
4gg]
8ff
=206
8ff
8ee
4cc
8dd
8ee-[
=207
8ee-]
8dd
4b-
8cc
[8dd-
=208
8dd-]
8cc
4dd-
8cc
8b-
=209
4.a
8cc
8r
8r
=210
16dd
16b-
16f
16b-
16dd
16b-
16cc
16a
16f
16a
16cc
16a
=211
16ee-
16b-
16g
16b-
16ee-
16b-
16ee-
16b-
16ee-
16b-
16dd
16a
=212
16ee-
16b-
16g
16b-
16ee-
16b-
16dd
16a
16f
16a
16dd
16a
=213
16gg
16b-
16g
16b-
16gg
16b-
16gg
16b-
16gg
16b-
16ff
16b-
=214
8.r
16g
16b-
16ee
8.r
16a
16cc
16ee-
=215
8.r
16g
16b-
16dd
8.r
16e-
16g
16cc
=216
8.r
16d
16f
16b-
8.r
16e-
16f
16a
=217
2.r
=218
4.r
8B-
8d
8f
=219
8f#
8a
8cc
8ee-
8ff#
8aa
=220
8ccc
8aa
8ff#
8ee-
8dd
8f#
=221
8a
8g
8cc#
8dd
8ff#
8gg
=222
8ccc#
8ddd
8aa
8bb-
8ff#
8gg
=223
8r
8ff
8ee
8r
8ee
8ddd-
=224
8r
8ddd-
8ccc
8r
8ccc
8ee
=225
8r
8ee
8ff
8ccc
8gg
8bb-
=226
8aa-
8ee
8gg
8ff
8ee-
8dd-
=227
4.cc
4.b
=228
4.ff
4.b
=229
8r
8cc
8dd
8r
8dd
8ee
=230
8r
8ee
8ff
8r
8ff#
8gg
=231
8r
8gg
8aa
8r
8aa
8bb-
=232
[2.bb-
=233
16bb-]
16ccc
16ddd
16ccc
16bb-
16aa
16gg
16aa
16bb-
16aa
16gg
16ff
=234
16ee
16ff
16gg
16ff
16ee
16dd
16cc
16cc#
16dd
16cc
16b-
16a
=235
16g
16a
16b-
16a
16g
16f
16e
16f
16g
16f
16e
16d
=236
2.r
=237
2.r
=238
16r
16ccc
16bb
16ccc
16fff
16ccc
16bb-
16aa
16gg#
16aa
16ccc
16aa
=239
16gg
16ff
16ee
16ff
16aa
16ff
16dd
16cc
16b
16cc
16ff
16cc
=240
16b-
16a
16g#
16a
16cc
16a
16f
16ff
16e
16ff
16f
16ff
=241
16g
16ff
16f
16ff
16g
16ff
16a
16ff
16g
16ff
16a
16ff
=242
16b-
16ff
16b-
16ff
16a
16ff
16b-
16ff
16b-
16ff
16a
16ff
=243
16a-
16ff
16a-
16ff
16a-
16ff
8ee
8r
8r
=244
16r
16ccc
16bb
16ccc
16fff
16ccc
16bb-
16aa
16gg#
16aa
16ccc
16aa
=245
16gg
16ff
16ee
16ff
16aa
16ff
16dd
16cc
16b
16cc
16ff
16cc
=246
16b-
16a
16g#
16a
16cc
16a
16f
16ff
16e
16ff
16f
16ff
=247
16g
16ff
16f
16ff
16g
16ff
16a
16ff
16g
16ff
16a
16ff
=248
16b-
16ff
16b-
16ff
16a
16ff
16b-
16ff
16b-
16ff
16a
16ff
=249
16a-
16ff
8r
8r
16g
16ee
8r
8r
=250
16f#
16ee-
8r
8r
8r
16d
16g
16b-
16dd
=251
16cc
16b-
16a
16g
16f
16e
8f
8c
8c
=252
[4.b-
8b-]
8a
8g
=253
4.f
4.f
=254
[4.b-
8b-]
8a
8g
=255
4.b
8cc
8r
8r
=256
[4.b-
8b-]
8a
8g
=257
4f
[8a
4a]
[8cc
=258
4cc]
[8b-
4b-]
8g
=259
8f
8r
8r
4.ccc#
=260
4.ddd
4.ccc
=261
4.bb-
4.aa
=262
4.gg
4.ff#
=263
16gg
16dd
16b-
16dd
16gg
16dd
16aa
16dd
16cc
16dd
16aa
16dd
=264
16bb-
16gg
16dd
16gg
16bb-
16gg
16bb
16gg
16dd
16gg
16bb
16gg
=265
4ccc
16ddd
16ccc
4bb-
16ccc
16bb-
=266
4aa
16bb-
16aa
4gg
16aa
16gg
=267
4ff
16gg
16ff
4ee
16ff
16ee
=268
16gg
16ff
16ee
16ff
16ee
16ff
16aa
16gg
16ff#
16gg
16ff#
16gg
=269
16aa
16gg
16ff
16gg
16aa
16bb-
16ccc
16bb-
16aa
16bb-
16ccc
16ccc#
=270
16ddd
16dd
16ddd
16ccc
16bb-
16aa
16gg
16ff#
16gg
16aa
16bb-
16bb
=271
16ccc
16cc
16ccc
16bb-
16aa
16gg
16ff
16ee
16ff
16gg
16aa-
16aa
=272
16bb-
16ccc
16bb-
16aa
16gg
16ff
16ee
16ff
16ee
16dd
16cc
16b-
=273
16a
16cc
16ff
16gg
16ff
16ee
16dd
16cc
16b-
16a
16g
16f
=274
16e
16f
16g
16f
16e
16d
16c
16r
8r
8r
=275
[4.a-
8a-]
8g
8f
=276
4b
8cc
4g
8r
=277
[4.dd-
8dd-]
8cc
8b-
=278
4a-
8b-
4cc
8r
=279
4.ff
4ee-
8ff
=280
4ee-
8dd-
4.cc
=281
4b-
8a-
4g
8f
=282
4.a-
8g
8r
8r
=283
[4.aa-
8aa-]
8gg
8ff
=284
4bb
8ccc
4gg
8r
=285
[4.ddd-
8ddd-]
8ccc
8bb-
=286
4aa
8ccc
4bb-
8r
=287
4.bb
4.ccc
=288
4.ddd-
8ccc
8r
16r
16fff
=289
4.ff
4.gg
=290
16ff
16cc
16b
16cc
16dd
16cc
16b-
16cc
16b-
16cc
16b-
16cc
=291
16a
16cc
16b
16cc
16ff
16cc
16b-
16cc
16b-
16cc
16b-
16cc
=292
16a
16ccc
16bb
16ccc
16ddd
16ccc
16bb-
16ccc
16bb-
16ccc
16bb-
16ccc
=293
16aa
16ccc
16bb
16ccc
16fff
16ccc
16bb-
16ccc
16bb-
16ccc
16bb-
16ccc
=294
16aa
16ccc
16fff
16aa
16gg
16eee
16ff
16ddd
16ee
16ccc
16dd
16bb-
=295
16cc
16aa
16b-
16gg
16a
16ff
16g
16ee
16f
16dd
16e
16cc
=296
4.b
4.b-
=297
4.bb-
4.ee
=298
8r
8ccc
8ccc
8r
8ddd
8ddd
=299
4.ff
4.gg
=300
16ff
16cc
16b
16cc
16dd
16cc
16b-
16cc
16b-
16cc
16b-
16cc
=301
16a
16cc
16b
16cc
16ff
16cc
16b-
16cc
16b-
16cc
16b-
16cc
=302
16a
16ccc
16bb
16ccc
16ddd
16ccc
16bb-
16ccc
16bb-
16ccc
16bb-
16ccc
=303
16aa
16ccc
16bb
16ccc
16fff
16ccc
16bb-
16ccc
16bb-
16ccc
16bb-
16ccc
=304
16aa
16ccc
16fff
16aa
16gg
16eee
16ff
16ddd
16ee
16ccc
16dd
16bb-
=305
16cc
16aa
16b-
16gg
16a
16ff
16g
16ee
16f
16dd
16e
16cc
=306
4.b
4.b-
=307
4.bb-
4.ee
=308
8r
8ccc
8ccc
8r
8ddd
8ddd
=309
4.ff
4.ee
=310
16bb
16ccc
16bb
16ccc
16bb
16ccc
16ccc#
16ddd
16ccc#
16ddd
16eee
16fff
=311
4.ff
[4gg
16gg]
16ff
=312
16ff
16aa
16ccc
16fff
16eee
16ddd
16ccc
16ddd
16ccc
16bb-
16aa
16gg
=313
16ff
16aa
16gg
16ff
16ee
16dd
16cc
16dd
16cc
16b-
16a
16g
=314
16f
16a
16g
16f
16e
16d
16c
16d
16c
16B-
16A
16G
=315
4.r
8f
8a
8cc
=316
4ff
8r
4ccc
8r
=317
4eee-
8r
4r
8r
=318
4ddd
8r
4r
8r
=319
4fff
8r
4r
8r
=320
2.f
=321
8a
4g[
4g]
8f
=322
8f
8r
8A
8B-
8g
8B
=323
8c
8a
8c#
8d
8b-
8e
=324
[4.bb-
8bb-]
16aa
16gg
16ff
16ee
=325
8ff
8gg
8aa
4cc
8b-
=326
4.b-
8a
8r
8r
=327
8r
8r
8A
8B-
8g
8B
=328
8c
8a
8c#
8d
8b-
8e
=329
[4.bb-
8bb-]
16aa
16gg
16ff
16ee
=330
32ff
32gg
16aa
8r
8r
32dd
32ee
16ff
8r
8r
=331
4.f
4g
8f
=332
4.f
8cc
8b-
8g
=333
4.f
8cc
8b-
8g
=334
8f
8c
8a
8f
8c
8a
=335
4.g
8f
8r
8r
==
*-
